X:0014
M:2/4
L:1/8
K:G
gfed |efge|dcBA|BGE2|gfed|efge|dcBA|GGG2:|

